X: 18357
T: Humours Of Whiskey, The
R: slip jig
M: 9/8
K: Bminor
|:"Bm"{e}f{g}fe fBB fBB|{e}f{g}fe fB"F#m"B fga|"G"{e}f{g}fe fBB fBB|"A"agf efd cBA:|
|:"D"d2e fed ecA|"Em"d2e fed fga|"D/F#"d2e ~f3 ecA|"G"agf "A"ef"A/C#"d cBA:|

